public/assets/icons/file-pdf.svg

<svg
      width="40"
      height="40"
      viewBox="0 0 40 40"
      fill="none"
      xmlns="http://www.w3.org/2000/svg"
    >
      <path
        fillRule="evenodd"
        clipRule="evenodd"
        d="M13.1698 0H26.7166L38.6745 11.9602V34.9274C38.6745 37.7163 36.3931 40 33.602 40H13.1699C10.381 40 8.09961 37.7163 8.09961 34.9274V5.07258C8.09961 2.28367 10.381 0 13.1698 0Z"
        fill="#E5252A"
      />
      <path
        fillRule="evenodd"
        clipRule="evenodd"
        d="M26.7168 0L38.6748 11.9602H28.0061C27.2952 11.9602 26.7168 11.3796 26.7168 10.6687V0Z"
        fill="#B71D21"
      />
      <path
        fillRule="evenodd"
        clipRule="evenodd"
        d="M2.4375 17.0328H29.9858C30.5984 17.0328 31.0991 17.5334 31.0991 18.1461V28.2523C31.0991 28.865 30.5984 29.3656 29.9858 29.3656H2.4375C1.82484 29.3656 1.32422 28.865 1.32422 28.2523V18.1461C1.32422 17.5334 1.82492 17.0328 2.4375 17.0328Z"
        fill="#B71D21"
      />
      <path
        d="M9.20031 19.0937H7.12234C6.7657 19.0937 6.47656 19.3828 6.47656 19.7395V23.1455V23.9845V26.6568C6.47656 27.0134 6.7657 27.3026 7.12234 27.3026C7.47898 27.3026 7.76813 27.0134 7.76813 26.6568V24.6302H9.20023C10.7021 24.6302 11.924 23.4084 11.924 21.9066V21.8174C11.9241 20.3155 10.7022 19.0937 9.20031 19.0937ZM10.6325 21.9065C10.6325 22.6962 9.99 23.3386 9.20031 23.3386H7.76813V23.1455V20.3852H9.20023C9.98992 20.3852 10.6324 21.0277 10.6324 21.8173V21.9065H10.6325ZM16.1497 19.0937H14.0718C13.7152 19.0937 13.426 19.3828 13.426 19.7395V26.6568C13.426 27.0134 13.7152 27.3026 14.0718 27.3026H16.1497C17.6516 27.3026 18.8734 26.0807 18.8734 24.5789V21.8174C18.8734 20.3155 17.6516 19.0937 16.1497 19.0937ZM17.5819 24.5788C17.5819 25.3685 16.9394 26.0109 16.1497 26.0109H14.7176V20.3852H16.1497C16.9394 20.3852 17.5819 21.0277 17.5819 21.8173V24.5788ZM21.7926 20.3852V22.1729H24.7861C25.1427 22.1729 25.4319 22.462 25.4319 22.8187C25.4319 23.1753 25.1427 23.4645 24.7861 23.4645H21.7926V26.6568C21.7926 27.0134 21.5034 27.3026 21.1468 27.3026C20.7902 27.3026 20.501 27.0134 20.501 26.6568V19.7395C20.501 19.3828 20.7902 19.0937 21.1468 19.0937H25.3027C25.6593 19.0937 25.9484 19.3828 25.9484 19.7395C25.9484 20.0961 25.6593 20.3852 25.3027 20.3852H21.7926Z"
        fill="white"
      />
    </svg>

<svg xmlns="http://www.w3.org/2000/svg" width="40" height="40" fill="none"><path fill="#E5252A" d="M13.17 0h13.547l11.958 11.96v22.967c0 2.79-2.282 5.073-5.073 5.073H13.17c-2.789 0-5.07-2.284-5.07-5.073V5.073C8.1 2.283 10.38 0 13.17 0"/><path fill="#B71D21" d="m26.717 0 11.958 11.96H28.006c-.71 0-1.29-.58-1.29-1.291zM2.438 17.033h27.548c.612 0 1.113.5 1.113 1.113v10.106c0 .613-.5 1.114-1.113 1.114H2.438c-.613 0-1.114-.501-1.114-1.114V18.146c0-.613.5-1.113 1.114-1.113"/><path fill="#fff" d="M9.2 19.094H7.122a.646.646 0 0 0-.645.645v6.918a.646.646 0 0 0 1.291 0V24.63H9.2a2.727 2.727 0 0 0 2.724-2.723v-.09A2.727 2.727 0 0 0 9.2 19.094m1.433 2.813c0 .79-.643 1.432-1.433 1.432H7.768v-2.954H9.2c.79 0 1.432.643 1.432 1.432zm5.517-2.813h-2.078a.646.646 0 0 0-.646.645v6.918c0 .356.29.646.646.646h2.078a2.727 2.727 0 0 0 2.723-2.724v-2.762a2.727 2.727 0 0 0-2.723-2.723m1.432 5.485c0 .79-.643 1.432-1.432 1.432h-1.432v-5.626h1.432c.79 0 1.432.643 1.432 1.432zm4.21-4.194v1.788h2.994a.646.646 0 0 1 0 1.292h-2.993v3.192a.646.646 0 0 1-1.292 0V19.74c0-.357.29-.646.646-.646h4.156a.646.646 0 0 1 0 1.291z"/></svg>
